X:84
T:Dorrian's
R:Reel
S:The McLoughlins, Derry (fiddle and pipes).
D:Ulster TV program 'From Glen To Glen'
Q:400
M:4/4
Z:Bernie Stocks
K:D
d2Ad cdAd | (3Bcd ef gece | dAAd cdAF | GEcE GABc |
d2Ad cdAd | (3Bcd ef gefg | afge fgec | dcAF GABc ||
d2fd Adfd | defa gece | d2fd Adfd | ceAc eAce |
d2fd Adfd | (3Bcd ef gefg | afge fgec | dcAF GABc ||
<end>
<start>
